source/images/svg/dashboard.svg

<?xml version="1.0" encoding="UTF-8"?>
<svg width="24px" height="22px" viewBox="0 0 24 22" version="1.1" xmlns="http://www.w3.org/2000/svg" xmlns:xlink="http://www.w3.org/1999/xlink">
    <!-- Generator: Sketch 45.1 (43504) - http://www.bohemiancoding.com/sketch -->
    <title>dash</title>
    <desc>Created with Sketch.</desc>
    <defs></defs>
    <g id="Page-1" stroke="none" stroke-width="1" fill="none" fill-rule="evenodd">
        <g id="Dashboard" transform="translate(-23.000000, -94.000000)" stroke="#4A90E2" stroke-width="1.5" fill-rule="nonzero">
            <g id="dash" transform="translate(23.000000, 94.000000)">
                <path d="M0.75,0.75 L0.75,0 L0,0.75 L0.75,0.75 Z M10.2741758,0.75 L11.0241758,0.75 L10.2741758,0 L10.2741758,0.75 Z M10.2741758,11.7321329 L10.2741758,12.4821329 L11.0241758,11.7321329 L10.2741758,11.7321329 Z M0.75,11.7321329 L0,11.7321329 L0.75,12.4821329 L0.75,11.7321329 Z M0.75,11.7321329 L0.75,0.75 L10.2741758,0.75 L10.2741758,11.7321329 L0.75,11.7321329 Z M23.25,0.75 L24,0.75 L23.25,0 L23.25,0.75 Z M23.25,6.8293843 L23.25,7.5793843 L24,6.8293843 L23.25,6.8293843 Z M13.7258242,6.8293843 L12.9758242,6.8293843 L13.7258242,7.5793843 L13.7258242,6.8293843 Z M13.7258242,0.75 L13.7258242,0 L12.9758242,0.75 L13.7258242,0.75 Z M13.7258242,0.75 L23.25,0.75 L23.25,6.8293843 L13.7258242,6.8293843 L13.7258242,0.75 Z M13.7258242,10.157977 L13.7258242,9.40797701 L12.9758242,10.157977 L13.7258242,10.157977 Z M23.25,10.157977 L24,10.157977 L23.25,9.40797701 L23.25,10.157977 Z M23.25,21.1401099 L23.25,21.8901099 L24,21.1401099 L23.25,21.1401099 Z M13.7258242,21.1401099 L12.9758242,21.1401099 L13.7258242,21.8901099 L13.7258242,21.1401099 Z M13.7258242,21.1401099 L13.7258242,10.157977 L23.25,10.157977 L23.25,21.1401099 L13.7258242,21.1401099 Z M0.75,21.1401099 L10.2741758,21.1401099 L10.2741758,15.0607256 L0.75,15.0607256 L0.75,21.1401099 Z" id="Shape"></path>
            </g>
        </g>
    </g>
</svg>

<svg xmlns="http://www.w3.org/2000/svg" width="24" height="22" viewBox="0 0 24 22">
  <path fill="none" stroke="#4A90E2" stroke-width="1.5" d="M.75.75V0L0 .75h.75zm9.524 0h.75l-.75-.75v.75zm0 10.982v.75l.75-.75h-.75zm-9.524 0H0l.75.75v-.75zm0 0V.75h9.524v10.982H.75zM23.25.75H24L23.25 0v.75zm0 6.08v.75l.75-.75h-.75zm-9.524 0h-.75l.75.75v-.75zm0-6.08V0l-.75.75h.75zm0 0h9.524v6.08h-9.524V.75zm0 9.408v-.75l-.75.75h.75zm9.524 0H24l-.75-.75v.75zm0 10.982v.75l.75-.75h-.75zm-9.524 0h-.75l.75.75v-.75zm0 0V10.158h9.524V21.14h-9.524zm-12.976 0h9.524v-6.08H.75v6.08z"/>
</svg>
